packages/kaspersky-hexa-ui-icons/src/iconsSVGs/24/StatusStarting.svg

<svg width="24" height="24" viewBox="0 0 24 24" fill="none" xmlns="http://www.w3.org/2000/svg">
<path fill-rule="evenodd" clip-rule="evenodd" d="M6.62069 15.6946L10.5 12L6.62069 8.30542C6.22433 7.92793 6 7.4045 6 6.85714V3C6 2.44772 6.44772 2 7 2H17C17.5523 2 18 2.44772 18 3V6.85714C18 7.4045 17.7757 7.92793 17.3793 8.30542L13.5 12L17.3793 15.6946C17.7757 16.0721 18 16.5955 18 17.1429V21C18 21.5523 17.5523 22 17 22H7C6.44772 22 6 21.5523 6 21V17.1429C6 16.5955 6.22433 16.0721 6.62069 15.6946ZM11.8793 13.4483C11.9215 13.4081 11.9618 13.3662 12 13.3229C12.0382 13.3662 12.0785 13.4081 12.1207 13.4483L16 17.1429L16 20H8L8 17.1429L11.8793 13.4483ZM16 6V4H8L8 6H16Z" fill="black"/>
</svg>

<svg xmlns="http://www.w3.org/2000/svg" width="24" height="24" fill="none" viewBox="0 0 24 24"><path fill="#000" fill-rule="evenodd" d="M6.6207 15.6946 10.5 12 6.6207 8.3054A2 2 0 0 1 6 6.8571V3c0-.5523.4477-1 1-1h10c.5523 0 1 .4477 1 1v3.8571a2 2 0 0 1-.6207 1.4483L13.5 12l3.8793 3.6946c.3964.3775.6207.9009.6207 1.4483V21c0 .5523-.4477 1-1 1H7c-.5523 0-1-.4477-1-1v-3.8571a2 2 0 0 1 .6207-1.4483m5.2586-2.2463A2 2 0 0 0 12 13.3229q.0573.065.1207.1254L16 17.1429V20H8v-2.8571zM16 6V4H8v2z"/></svg>
